modules/gui/qt/pixmaps/prefs/advprefs_video.svg

<?xml version="1.0" encoding="UTF-8" standalone="no"?>
<!-- Created with Inkscape (http://www.inkscape.org/) -->

<svg
   xmlns:dc="http://purl.org/dc/elements/1.1/"
   xmlns:cc="http://creativecommons.org/ns#"
   xmlns:rdf="http://www.w3.org/1999/02/22-rdf-syntax-ns#"
   xmlns:svg="http://www.w3.org/2000/svg"
   xmlns="http://www.w3.org/2000/svg"
   xmlns:sodipodi="http://sodipodi.sourceforge.net/DTD/sodipodi-0.dtd"
   xmlns:inkscape="http://www.inkscape.org/namespaces/inkscape"
   width="48"
   height="48"
   viewBox="0 0 48 48"
   id="svg2"
   version="1.1"
   inkscape:version="0.92.1 r15371"
   sodipodi:docname="advprefs_video.svg">
  <defs
     id="defs8" />
  <sodipodi:namedview
     pagecolor="#ffffff"
     bordercolor="#666666"
     borderopacity="1"
     objecttolerance="10"
     gridtolerance="10"
     guidetolerance="10"
     inkscape:pageopacity="0"
     inkscape:pageshadow="2"
     inkscape:window-width="960"
     inkscape:window-height="1028"
     id="namedview6"
     showgrid="true"
     inkscape:zoom="4"
     inkscape:cx="15.735069"
     inkscape:cy="74.306875"
     inkscape:window-x="960"
     inkscape:window-y="27"
     inkscape:window-maximized="0"
     inkscape:current-layer="layer1"
     showguides="true"
     inkscape:guide-bbox="true">
    <sodipodi:guide
       position="0,24.017661"
       orientation="1,0"
       id="guide2390"
       inkscape:locked="false" />
    <sodipodi:guide
       position="23.59322,0"
       orientation="0,1"
       id="guide2392"
       inkscape:locked="false" />
    <inkscape:grid
       type="xygrid"
       id="grid4485" />
  </sodipodi:namedview>
  <metadata
     id="metadata7">
    <rdf:RDF>
      <cc:Work
         rdf:about="">
        <dc:format>image/svg+xml</dc:format>
        <dc:type
           rdf:resource="http://purl.org/dc/dcmitype/StillImage" />
        <dc:title></dc:title>
      </cc:Work>
    </rdf:RDF>
  </metadata>
  <g
     inkscape:label="Master"
     inkscape:groupmode="layer"
     id="layer1"
     transform="translate(-384,-1004.3622)"
     style="display:inline">
    <path
       style="color:#000000;display:inline;overflow:visible;visibility:visible;opacity:1;fill:#757575;fill-opacity:1;fill-rule:nonzero;stroke:none;stroke-width:2;stroke-linecap:round;stroke-linejoin:round;stroke-miterlimit:3.70000005;stroke-dasharray:none;stroke-dashoffset:0;stroke-opacity:1;marker:none;enable-background:accumulate"
       d="M 8 8 L 8 40 L 11 40 L 11 36 L 15 36 L 15 40 L 20 40 L 20 35 A 11 11 0 0 1 31 24 L 33 24 L 37 24 L 38 24 L 40 24 L 40 8 L 37 8 L 37 12 L 33 12 L 33 8 L 24 8 L 15 8 L 15 12 L 11 12 L 11 8 L 8 8 z M 11 15 L 15 15 L 15 19 L 11 19 L 11 15 z M 33 15 L 37 15 L 37 19 L 33 19 L 33 15 z M 11 22 L 15 22 L 15 26 L 11 26 L 11 22 z M 34.273438 26.589844 C 33.911198 26.560844 33.553688 26.772766 33.267578 27.072266 L 32.255859 28.119141 C 31.847969 28.045141 31.42922 28 31 28 C 30.57078 28 30.152031 28.045041 29.744141 28.119141 L 28.732422 27.072266 C 28.446302 26.772766 28.088602 26.562297 27.726562 26.591797 C 27.605883 26.601797 27.484814 26.635778 27.365234 26.705078 L 26.5 27.207031 L 25.634766 27.705078 C 25.156476 27.981178 25.112498 28.542166 25.267578 29.072266 L 25.667969 30.470703 C 25.126699 31.107403 24.701053 31.843984 24.414062 32.646484 L 23 33 C 22.46341 33.1307 22 33.4477 22 34 L 22 35 L 22 36 C 22 36.5523 22.46342 36.8693 23 37 L 24.414062 37.353516 C 24.701032 38.156516 25.126459 38.892297 25.667969 39.529297 L 25.267578 40.929688 C 25.112478 41.459687 25.156476 42.018822 25.634766 42.294922 L 26.5 42.794922 L 27.365234 43.294922 C 27.843524 43.571122 28.350922 43.326934 28.732422 42.927734 L 29.744141 41.880859 C 30.152051 41.954859 30.57076 42 31 42 C 31.42924 42 31.847949 41.954959 32.255859 41.880859 L 33.267578 42.927734 C 33.649078 43.327134 34.156476 43.571122 34.634766 43.294922 L 35.5 42.794922 L 36.365234 42.294922 C 36.843524 42.018822 36.887502 41.459687 36.732422 40.929688 L 36.332031 39.529297 C 36.873541 38.892297 37.298968 38.156516 37.585938 37.353516 L 39 37 C 39.53659 36.8693 40 36.5523 40 36 L 40 35 L 40 34 C 40 33.4477 39.53659 33.1307 39 33 L 37.585938 32.646484 C 37.298947 31.843984 36.873301 31.107403 36.332031 30.470703 L 36.732422 29.072266 C 36.887522 28.542166 36.843524 27.981178 36.365234 27.705078 L 35.5 27.207031 L 34.634766 26.705078 C 34.515186 26.636078 34.394178 26.599644 34.273438 26.589844 z M 11 29 L 15 29 L 15 33 L 11 33 L 11 29 z M 31 31 C 33.20914 31 35 32.7909 35 35 C 35 37.2091 33.20914 39 31 39 C 28.79086 39 27 37.2091 27 35 C 27 32.7909 28.79086 31 31 31 z "
       transform="translate(384,1004.3622)"
       id="path10693-0-0" />
  </g>
</svg>

<svg viewBox="0 0 48 48" xmlns="http://www.w3.org/2000/svg">
  <path d="M8 8v32h3v-4h4v4h5v-5a11 11 0 0 1 11-11h9V8h-3v4h-4V8H15v4h-4V8H8zm3 7h4v4h-4v-4zm22 0h4v4h-4v-4zm-22 7h4v4h-4v-4zm23.273 4.59c-.362-.03-.72.183-1.005.482l-1.012 1.047A7.023 7.023 0 0 0 31 28c-.43 0-.848.045-1.256.12l-1.012-1.048c-.286-.3-.643-.51-1.005-.48a.85.85 0 0 0-.362.113l-.865.502-.865.498c-.479.276-.523.837-.367 1.367l.4 1.399a6.992 6.992 0 0 0-1.254 2.175L23 33c-.537.13-1 .448-1 1v2c0 .552.463.87 1 1l1.414.354a6.985 6.985 0 0 0 1.254 2.175l-.4 1.4c-.156.53-.112 1.09.367 1.366l.865.5.865.5c.479.276.986.032 1.367-.367l1.012-1.047c.408.074.827.119 1.256.119.43 0 .848-.045 1.256-.12l1.012 1.048c.381.4.888.643 1.367.367l.865-.5.865-.5c.479-.276.523-.835.367-1.365l-.4-1.4a6.985 6.985 0 0 0 1.254-2.176L39 37c.537-.13 1-.448 1-1v-2c0-.552-.463-.87-1-1l-1.414-.354a6.992 6.992 0 0 0-1.254-2.175l.4-1.399c.156-.53.112-1.09-.367-1.367l-.865-.498-.865-.502a.855.855 0 0 0-.362-.115zM11 29h4v4h-4v-4zm20 2a4 4 0 1 1 0 8 4 4 0 0 1 0-8z" fill="#757575"/>
</svg>
